X:1
T:Title
%%score { 1 | ( 2 3 ) }
L:1/8
M:4/4
K:A
V:1 treble nm="Grand Piano"
V:2 bass 
V:3 bass 
V:1
 z4 z2[Q:1/4=100] [CE]>[CE] | [CA]2 [Ec]2 [DB][CA][CE][K:bass][E,A,C] | %2
 [A,CE]2 .[G,B,E]2 [A,CE]2 [E,A,C]>[E,B,D] | [CE]2 [Ec]2 [^DB][DA][DG][DA] | B3 c d2 c>B | %5
 [CA]2 [Ec]2 [DB][CA][CE]C | F2 [EF]2 [DF][Fd][Fc][FB] | A A2 A G2 B2 | [CA]6 z2 | c c2 c d2 d2 | %10
 c4 A2 c2 | B B2 c B2 F2 | B6 c>d | e2 e2 c2 [CA]>[CE] | %14
[M:9/8] [DF]2 [FA]- [FA] [^Ec]2- [Ec][Fd][FBd] |[M:4/4] [EAc] [EAc]2 [CEA] [EAc]2 [DGB]2 | %16
[M:3/4] [CEA]6 |] %17
V:2
 z4 z2 [A,,A,]>[A,,A,] | [A,,A,]2 [A,,A,]2 [A,,A,][A,,A,][A,,A,]A,, | z2 E,2 z4 | %3
 [A,,A,]2 [A,,A,]2 [B,,F,][B,,F,][B,,B,][B,,A,] | [E,G,E]6 [E,G,E]>[E,G,D] | %5
 [A,,A,]2 [A,,A,]2 [A,,A,][A,,A,][A,,A,][A,,A,] | [D,A,D]2 [C,^A,]2 [B,,B,]2 [C,A,][D,B,] | %7
 [E,CE] [E,CE]2 [E,CE] [E,B,D]2 [E,G,D]2 | [A,,A,]6 z2 | [A,E] [A,E]2 [A,E] [A,F]2 [A,^E]2 | %10
 E4 E2 E2 | E E2 E ^D2 D2 | E2 ^D2 E2 E>E | A2 A2[K:bass] [A,E]2 [A,,E,]>[A,,A,] | %14
[M:9/8] [D,A,]2 [D,F,]- [D,F,] [C,G,]2- [C,G,][B,,B,]B,, |[M:4/4] E, E,2 E, E,2 E,2 | %16
[M:3/4] A,,6 |] %17
V:3
 x8 | x8 | A,,2 z D A,,2 A,,>A,, | x8 | x8 | x8 | x8 | x8 | x8 | x8 | x8 | x8 | x8 | %13
 x4[K:bass] x4 |[M:9/8] x9 |[M:4/4] x8 |[M:3/4] x6 |] %17

